X: 25
T:Sweet Castle Hill
M:3/4
L:1/8
S:P.J.Healy, San Francisco
R:Air
K:G
"Andante"G/2D/2E|G3 A B2|AG G3 A|B2 AG E2|G4 B2|
cd/2e/2 d2 BA|G2 EG A2|d2 e2 de| B2 AG A2|B2 AG E2|
D4 DE|G3 F E2|D2 d3 B|A3 G A2|G4||
DE|G3 A B2|GA B2 AG|E G3 DE|G2 A B3|
AG E A3|B A3 z2|d2 e2 de|B2 A2 GA|B2 AG E2|
D4 DE|G3 F E2|D2 d3 B|A3 G A2|G4||

